image/title.svg

<svg fill="none" height="93" viewBox="0 0 776 93" width="776" xmlns="http://www.w3.org/2000/svg"><g fill="#1e1e1e"><path d="m14.2302 65.9257v22.2539c0 1.2902-1.5329 3.3948-2.8903 3.7425-1.2467.3203-7.44298.2928-8.63422-.0824-1.717598-.549-2.400949-2.3699-2.6595122-3.9713l-.0461678-64.5745c.249329-2.9465 1.61602-4.9321 4.78343-5.0236 19.54927.6771 39.68027-.8693 59.15567 0 8.2832.366 23.7601 3.0288 27.7309 11.3008 1.616 3.3673 1.4036 14.357 1.1174 18.4381-1.0528 14.8969-18.118 17.34-30.0303 17.9257-14.9228.7137-31.7018.8052-46.6708.3111-.6464-.0183-1.2281-.2929-1.8745-.302h.0092zm0-11.4746h52.3407c4.1278-.3295 11.1644-1.4183 12.1802-6.2955.4802-2.3059.3786-10.2577.1385-12.8015-.4433-4.7216-9.0775-5.0144-12.6235-5.5817h-52.0359v24.6878z"/><path d="m543.574 49.8484h66.239c.489 0 2.327.8693 2.77 1.2719 2.013 1.8576 1.533 7.6589-.729 9.3518-.268.2013-1.542.8601-1.746.8601h-66.238v13.3505c0 .366.979 1.7843 1.302 2.1595 2.706 3.1477 9.918 3.834 13.898 4.0262 16.76.8052 34.176-.6497 51.011.0091 5.106.6039 5.079 10.889-.25 11.1818-17.794-.8235-36.531 1.0524-54.224-.0182-9.604-.5765-24.545-4.557-25.653-15.9309-1.266-12.9571.942-27.8906 0-41.0489 2.022-12.7465 18.108-16.3152 29.116-16.8093 4.617-.2013 11.45-.3843 15.966 0s5.005 3.9164 4.451 7.8785c-.277 2.0497-1.884 3.3125-3.915 3.587-7.536 1.0157-24.721-1.9857-30.409 3.7608-.536.5399-1.598 2.3334-1.598 3.0105v13.3505h.009z"/><path d="m140.622 49.8484h65.222v-28.5676c0-.9883 1.884-2.3426 2.835-2.6445 2.558-.8144 9.318-1.0889 10.472 2.1046.693 22.6564.203 45.5051.249 68.2256-.221 1.2993-1.209 2.6078-2.53 2.9464-1.154.2928-6.981.3111-8.209.0732-1.062-.2104-2.826-1.9582-2.826-2.9464v-27.7075h-65.223v27.7075c0 .9882-1.763 2.736-2.825 2.9464-1.238.2471-7.314.2196-8.441-.1281-1.237-.3843-2.373-1.9399-2.585-3.1843l-.083-65.6818c.009-1.7203.785-3.5046 2.419-4.2001 2.152-.915 8.57-.9242 10.361.7595.249.2288 1.145 1.5647 1.145 1.7386v28.5676z"/><path d="m676.061 54.4511c-.268 0-.518-.119-.721-.2837-10.333-8.7478-22.033-17.3767-31.886-26.4264-2.216-2.0314-4.543-4.3099-2.641-7.4759.923-1.5282 2.964-1.8759 4.645-2.004 2.197-.1738 5.633-.247 7.498.9151l33.087 27.2225 1.441-.8693 31.655-26.3532c2.152-1.2628 7.323-1.2445 9.668-.4759 3.667 1.1896 3.602 5.0968 1.312 7.6223l-34.075 28.2657 34.795 29.2723c2.115 1.8758 2.964 5.4628.425 7.3295-2.143 1.5738-9.207 1.5464-11.552-.0458l-33.42-28.0735c-11.774 9.2053-23.03 19.1061-34.74 28.4121-2.299 1.1804-6.704.9882-9.216.4941-4.137-.8052-3.989-5.4171-1.523-7.9792 10.961-9.6262 23.077-18.4381 33.918-28.1284.221-.2013 1.413-1.2811 1.311-1.4183z"/><path d="m420.009 18.3435c3.278-.4667 9.243-.668 9.908 3.532v50.8032c.674 7.6498 10.592 7.5766 16.391 7.8877 16.89.9059 34.002-.1464 50.956.3477 4.857.8053 4.728 10.8982-.499 11.1361-18.21-.7961-37.27 1.0157-55.379-.0183-10.573-.6039-24.517-5.4354-25.385-17.6329-1.191-16.91.924-35.2017.009-52.2581.259-2.2693 1.764-3.4863 3.99-3.7974z"/><path d="m306.084 18.3435c3.084-.4484 9.197-.7046 9.853 3.2941l.055 50.7575c.684 7.9242 10.361 7.851 16.382 8.1805 16.89.9059 34.001-.1464 50.956.3477 3.583.5948 3.777 4.6209 3.38 7.5125-.259 1.8941-1.875 3.6601-3.879 3.6235-18.21-.7869-37.27 1.0158-55.379-.0182-10.795-.6131-24.462-5.5635-25.385-17.9349-1.237-16.6812.951-34.854.009-51.6816.286-2.3791 1.607-3.7426 3.989-4.0811z"/><path d="m257.945 37.2757c.979-.2196 5.827-.183 6.676.1556 1.275.5124 2.78 2.8824 2.946 4.2549l.028 46.777c-.166 1.638-1.321 3.3033-3.066 3.5687-1.247.1921-6.224.183-7.378-.119-1.33-.3385-2.392-1.8758-2.577-3.1935l-.018-46.475c-.019-1.6837 1.745-4.5935 3.389-4.9687z"/><path d="m259.413 18.3435c5.375-.6314 11.903 2.7085 9.77 8.821-2.447 7.0275-17.905 6.451-16.677-3.5961.351-2.8916 4.238-4.9138 6.898-5.2249z"/><path d="m768.672 2.52237c10.417 5.79222 9.447 20.70743-1.126 25.87743-15.856 7.7504-33.9-8.9217-21.876-22.92185 5.513-6.414448 15.855-6.91772 22.993-2.95558zm-3.786.42091c-23.584-8.23539-28.765 27.88132-3.619 25.23692 14.424-1.519 17.166-20.497 3.619-25.23692z"/><path d="m758.764 6.1734c1.293.08236 2.715.14641 3.906 1.08891 2.124 1.69283 2.106 7.23799-1.071 7.90599.84.8144 4.71 8.9949 4.71 8.9949l-2.872-.0366-4.294-7.9518h-3.583v8.0067l-2.688-.0183v-17.98064c.074.05491 3.62-.1464 5.91 0zm1.164 2.23271c-1.339-.17386-2.882-.0549-4.378 0v5.59089c1.026-.0549 5.061.3111 5.698-1.0797.517-1.1438.646-4.25498-1.32-4.51119z"/></g></svg>

<svg width="776" height="93" viewBox="0 0 776 93" fill="none" xmlns="http://www.w3.org/2000/svg">
<path d="M14.2302 65.9257V88.1796C14.2302 89.4698 12.6973 91.5744 11.3399 91.9221C10.0932 92.2424 3.89692 92.2149 2.70568 91.8397C0.988082 91.2907 0.304731 89.4698 0.0461678 87.8684L0 23.2939C0.249329 20.3474 1.61602 18.3618 4.78343 18.2703C24.3327 18.9474 44.4637 17.401 63.9391 18.2703C72.2223 18.6363 87.6992 21.2991 91.67 29.5711C93.286 32.9384 93.0736 43.9281 92.7874 48.0092C91.7346 62.9061 74.6694 65.3492 62.7571 65.9349C47.8343 66.6486 31.0553 66.7401 16.0863 66.246C15.4399 66.2277 14.8582 65.9531 14.2118 65.944H14.221L14.2302 65.9257ZM14.2302 54.4511H66.5709C70.6987 54.1216 77.7353 53.0328 78.7511 48.1556C79.2313 45.8497 79.1297 37.8979 78.8896 35.3541C78.4463 30.6325 69.8121 30.3397 66.2661 29.7724H14.2302V54.4602V54.4511Z" fill="#1E1E1E"/>
<path d="M543.574 49.8484H609.813C610.302 49.8484 612.14 50.7177 612.583 51.1203C614.596 52.9779 614.116 58.7792 611.854 60.4721C611.586 60.6734 610.312 61.3322 610.108 61.3322H543.87V74.6827C543.87 75.0487 544.849 76.467 545.172 76.8422C547.878 79.9899 555.09 80.6762 559.07 80.8684C575.83 81.6736 593.246 80.2187 610.081 80.8775C615.187 81.4814 615.16 91.7665 609.831 92.0593C592.037 91.2358 573.3 93.1117 555.607 92.0411C546.003 91.4646 531.062 87.4841 529.954 76.1102C528.688 63.1531 530.896 48.2196 529.954 35.0613C531.976 22.3148 548.062 18.7461 559.07 18.252C563.687 18.0507 570.52 17.8677 575.036 18.252C579.552 18.6363 580.041 22.1684 579.487 26.1305C579.21 28.1802 577.603 29.443 575.572 29.7175C568.036 30.7332 550.851 27.7318 545.163 33.4783C544.627 34.0182 543.565 35.8117 543.565 36.4888V49.8393H543.574V49.8484Z" fill="#1E1E1E"/>
<path d="M140.622 49.8484H205.844V21.2808C205.844 20.2925 207.728 18.9382 208.679 18.6363C211.237 17.8219 217.997 17.5474 219.151 20.7409C219.844 43.3973 219.354 66.246 219.4 88.9665C219.179 90.2658 218.191 91.5743 216.87 91.9129C215.716 92.2057 209.889 92.224 208.661 91.9861C207.599 91.7757 205.835 90.0279 205.835 89.0397V61.3322H140.612V89.0397C140.612 90.0279 138.849 91.7757 137.787 91.9861C136.549 92.2332 130.473 92.2057 129.346 91.858C128.109 91.4737 126.973 89.9181 126.761 88.6737L126.678 22.9919C126.687 21.2716 127.463 19.4873 129.097 18.7918C131.249 17.8768 137.667 17.8676 139.458 19.5513C139.707 19.7801 140.603 21.116 140.603 21.2899V49.8575L140.622 49.8484Z" fill="#1E1E1E"/>
<path d="M676.061 54.4511C675.793 54.4511 675.543 54.3321 675.34 54.1674C665.007 45.4196 653.307 36.7907 643.454 27.741C641.238 25.7096 638.911 23.4311 640.813 20.2651C641.736 18.7369 643.777 18.3892 645.458 18.2611C647.655 18.0873 651.091 18.0141 652.956 19.1762L686.043 46.3987L687.484 45.5294L719.139 19.1762C721.291 17.9134 726.462 17.9317 728.807 18.7003C732.474 19.8899 732.409 23.7971 730.119 26.3226L696.044 54.5883L730.839 83.8606C732.954 85.7364 733.803 89.3234 731.264 91.1901C729.121 92.7639 722.057 92.7365 719.712 91.1443L686.292 63.0708C674.518 72.2761 663.262 82.1769 651.552 91.4829C649.253 92.6633 644.848 92.4711 642.336 91.977C638.199 91.1718 638.347 86.5599 640.813 83.9978C651.774 74.3716 663.89 65.5597 674.731 55.8694C674.952 55.6681 676.144 54.5883 676.042 54.4511H676.061Z" fill="#1E1E1E"/>
<path d="M420.009 18.3435C423.287 17.8768 429.252 17.6755 429.917 21.8755V72.6787C430.591 80.3285 440.509 80.2553 446.308 80.5664C463.198 81.4723 480.31 80.42 497.264 80.9141C502.121 81.7194 501.992 91.8123 496.765 92.0502C478.555 91.2541 459.495 93.0659 441.386 92.0319C430.813 91.428 416.869 86.5965 416.001 74.399C414.81 57.489 416.925 39.1973 416.01 22.1409C416.269 19.8716 417.774 18.6546 420 18.3435H420.009Z" fill="#1E1E1E"/>
<path d="M306.084 18.3435C309.168 17.8951 315.281 17.6389 315.937 21.6376L315.992 72.3951C316.676 80.3193 326.353 80.2461 332.374 80.5756C349.264 81.4815 366.375 80.4292 383.33 80.9233C386.913 81.5181 387.107 85.5442 386.71 88.4358C386.451 90.3299 384.835 92.0959 382.831 92.0593C364.621 91.2724 345.561 93.0751 327.452 92.0411C316.657 91.428 302.99 86.4776 302.067 74.1062C300.83 57.425 303.018 39.2522 302.076 22.4246C302.362 20.0455 303.683 18.682 306.065 18.3435H306.084Z" fill="#1E1E1E"/>
<path d="M257.945 37.2757C258.924 37.0561 263.772 37.0927 264.621 37.4313C265.896 37.9437 267.401 40.3137 267.567 41.6862L267.595 88.4632C267.429 90.1012 266.274 91.7665 264.529 92.0319C263.282 92.224 258.305 92.2149 257.151 91.9129C255.821 91.5744 254.759 90.0371 254.574 88.7194L254.556 42.2444C254.537 40.5607 256.301 37.6509 257.945 37.2757Z" fill="#1E1E1E"/>
<path d="M259.413 18.3435C264.788 17.7121 271.316 21.052 269.183 27.1645C266.736 34.192 251.278 33.6155 252.506 23.5684C252.857 20.6768 256.744 18.6546 259.404 18.3435H259.413Z" fill="#1E1E1E"/>
<path d="M768.672 2.52237C779.089 8.31459 778.119 23.2298 767.546 28.3998C751.69 36.1502 733.646 19.4781 745.67 5.47795C751.183 -0.936498 761.525 -1.43977 768.663 2.52237H768.672ZM764.886 2.94328C741.302 -5.29211 736.121 30.8246 761.267 28.1802C775.691 26.6612 778.433 7.6832 764.886 2.94328Z" fill="#1E1E1E"/>
<path d="M758.764 6.1734C760.057 6.25576 761.479 6.31981 762.67 7.26231C764.794 8.95514 764.776 14.5003 761.599 15.1683C762.439 15.9827 766.309 24.1632 766.309 24.1632L763.437 24.1266L759.143 16.1748H755.56V24.1815L752.872 24.1632V6.18256C752.946 6.23747 756.492 6.03616 758.782 6.18256L758.764 6.1734ZM759.928 8.40611C758.589 8.23225 757.046 8.35121 755.55 8.40611V13.997C756.576 13.9421 760.611 14.3081 761.248 12.9173C761.765 11.7735 761.894 8.66232 759.928 8.40611Z" fill="#1E1E1E"/>
</svg>
